X: 7
T: The Fox On The Town
R: reel
M: 4/4
L: 1/8
K: Gmaj
GEDG EDB,A,|G,2B,G, DG,B,D|GEDG E3F|G2FG EFGA|
BE (3EEE EDB,A,|G,2B,G, DG,B,D|EFGB AGED|DGGF G2EF:|
|:BE (3EEE BAGE|DB, (3B,B,B, DEGA|BE (3EEE BAGE|DEGB ABA2|
G2GE DEDB,|G,B,DG EDB,E|DEGA BGAF|GEDB, G,2GA:|


Tune 341	Setting 13131

